X:397
T:Reel 397
L:1/8
M: 4/4
K: G Major
e2efg2ef|gfeBdBGB|c2ccdcBd|cAAGABGF|g2fed2ed|ecBAGBB2|GBdBcded|1cBABGABB:|2cBABG2Bd|:f2dfd2fg|afgae2fg|agfedcBd|egfde2ag|f2dfd2fg|afdef2ed|g2fgedec|1BGABc2cd:|2BGABcBAB|.abc